d1 $ stack
  [ s "808bd*4" # n "1"
    # room 0.6 # orbit 1
  , every 3 (rev) $ s "clak ~ [clak*<14 20 30>]" # cut 1 # lpf 3000 # delay 0.8 # room 0.2 # orbit 0
  , s "<clubkick click>" # lpf 200 # cut 1
  , s "coins*3" # cut 1
  ]

d1 $ every 4 rev $ speed "2 4 6 8" # s "bd" # room 0.1 # pan rand
  # gain 1.4

d2 $ sound "cp:1" # room 0.2 # gain 1.4

d3 $ sound "808bd:1*3"

d4 $ brak $ s "hh*12" # lpf 2000
